X:88
T:Maple Leaf Rant
R:Reel
S:1,2,3,4  2,3,4,1
M:4/4
L:1/8
K:D
A2 | "D" A/B/A^GA  .B2 A2 | d/e/d^cd .e2 d2 | dAdf "D#"  a2 ^g2 | "Em" g6A2|!
| "A7" A/B/A^GA .B2 A2 | c/d/c=c^c .e2 c2 | gagf edcB | "D" A4 "A7" A3 B|!
| "D" A/B/A^GA .B2 A2 | d/e/d^cd .e2 d2 | f2 de "D7" fga^a | "G" (b4 b4)|!
| "G" bdgb dgbd| "D" adfa dfad | "Em" gfed "A7" cdef | "D" -{c}d4 "D7" d4||!
| "G" B3 B BcdB |  "D" .A2 F2 F3 F | "Em" .G2 G2 "A7" GABG| "D" ({B}A4) "D7" A3 A |!
| "G" B4  BcdB | "D" .A2 F2 F3 F | "E" E^GBd "E7" .c2 B2  | "A" A4 "D7"A4 |!
||:"G" {d} B3 B .B2 d2 | "D" A3 A "B7" .A2 F2 |  "Em" G3 G "A7" G2 B |"D" {d}A4 "D7" A4 |!
| "G" {d} B3 B .B2 d2 | "D" .A2 f2 "E7" edcB |  "D" .A2 f2 "A7" f3 e |1"D" {c}d4  "D7" d4 :||2 {c}d4 d2 ||
